app/images/rewards/ghosty-star.svg

<?xml version="1.0" encoding="UTF-8"?>
<svg width="28px" height="28px" viewBox="0 0 28 28" version="1.1" xmlns="http://www.w3.org/2000/svg" xmlns:xlink="http://www.w3.org/1999/xlink">
    <!-- Generator: Sketch 48.2 (47327) - http://www.bohemiancoding.com/sketch -->
    <title>Group 3</title>
    <desc>Created with Sketch.</desc>
    <defs></defs>
    <g id="strong-rewards-notification-Main-Copy-2" stroke="none" stroke-width="1" fill="none" fill-rule="evenodd" transform="translate(-1235.000000, -4096.000000)">
        <g id="Group-32" transform="translate(1095.000000, 3554.000000)" fill="#FFFFFF">
            <g id="Group" transform="translate(133.000000, 423.000000)">
                <g id="Group-3" transform="translate(7.000000, 119.000000)">
                    <path d="M21.0536665,19.7267042 C20.0268037,17.4613786 19.8500974,15.5420433 19.8224005,14.787879 L19.8224005,8.58271611 C19.8224005,3.84244752 15.796932,0 10.831569,0 C5.86565208,0 1.84004513,3.84244752 1.84004513,8.58271611 L1.84004513,14.8775802 C1.80154643,15.6888025 1.59977446,17.549596 0.612795176,19.7267042 C-0.714302125,22.6521764 0.383741755,22.3036233 1.36753589,22.0628465 C2.35105306,21.8231487 4.54755627,20.883647 5.23388563,22.0411293 C5.91966105,23.1979372 6.49187915,24.2028601 8.09317583,23.5475695 C9.69461099,22.8929532 10.4492132,22.674568 10.6778512,22.674568 L10.988749,22.674568 C11.2172485,22.674568 11.9721277,22.8929532 13.5732859,23.5475695 C15.174721,24.2028601 15.7468006,23.1979372 16.4329915,22.0411293 C17.1189054,20.883647 19.3152701,21.8231487 20.2990643,22.0628465 C21.2827199,22.3036233 22.3803484,22.6521764 21.0536665,19.7267042 M8.05633894,4.67997321 C9.0247613,4.67997321 9.80996861,5.86578224 9.80996861,7.32892302 C9.80996861,8.79219869 9.0247613,9.97827751 8.05633894,9.97827751 C7.08791659,9.97827751 6.30257079,8.79219869 6.30257079,7.32892302 C6.30257079,5.86578224 7.08791659,4.67997321 8.05633894,4.67997321 M10.831569,15.2684885 C8.69752234,15.2684885 6.90110095,13.2636335 6.3597649,11.0327047 C7.40518466,12.4049303 9.01908343,13.2865647 10.831569,13.2865647 C12.6437777,13.2865647 14.2576764,12.4049303 15.3032347,11.0327047 C14.7618986,13.2636335 12.9652003,15.2684885 10.831569,15.2684885 M13.6069376,9.97827751 C12.6376843,9.97827751 11.8528925,8.79219869 11.8528925,7.32892302 C11.8528925,5.86578224 12.6376843,4.67997321 13.6069376,4.67997321 C14.5757754,4.67997321 15.3602903,5.86578224 15.3602903,7.32892302 C15.3602903,8.79219869 14.5757754,9.97827751 13.6069376,9.97827751" id="Fill-3"></path>
                    <g id="noun_256202" transform="translate(10.523623, 12.502664)" fill-rule="nonzero" stroke="#5B005C" stroke-width="0.887285837">
                        <path d="M15.7545411,6.6903888 L12.5123916,9.28291446 C12.3246883,9.4334482 12.2393685,9.68433778 12.2905604,9.93522736 L13.2632052,13.8491048 C13.3997168,14.4846917 12.9219263,15.0031969 12.3588161,15.0031969 C12.1881767,15.0031969 12.0175372,14.953019 11.8639617,14.8526631 L8.33172523,12.7284647 C8.12695789,12.5946569 7.85393478,12.5946569 7.64916745,12.7284647 L4.15105881,14.8526631 C3.99748331,14.953019 3.80977992,15.0031969 3.63914048,15.0031969 C3.07603031,15.0031969 2.56411197,14.4846917 2.73475142,13.8491048 L3.70739626,9.93522736 C3.75858809,9.70106376 3.69033231,9.45017418 3.48556498,9.29964043 L0.328735236,6.6903888 C-0.319694657,6.13843172 0.0557121231,5.08469549 0.891845406,5.03451757 L5.02131999,4.75017605 C5.26021521,4.73345007 5.48204649,4.58291633 5.58443016,4.34875272 L7.15431305,0.58540902 C7.3249525,0.200711664 7.68329533,0 8.04163817,0 C8.39998101,0 8.75832384,0.200711664 8.92896329,0.58540902 L10.4988462,4.34875272 C10.5841659,4.56619035 10.8059972,4.7167241 11.0619564,4.75017605 L15.1914309,5.03451757 C16.0446282,5.08469549 16.4200349,6.13843172 15.7545411,6.6903888 Z" id="Shape"></path>
                    </g>
                </g>
            </g>
        </g>
    </g>
</svg>

<svg width="28" height="28" viewBox="0 0 28 28" xmlns="http://www.w3.org/2000/svg">
  <g fill="#FFF" fill-rule="evenodd">
    <path d="M21.054 19.727c-1.027-2.266-1.204-4.185-1.232-4.94V8.584c0-4.74-4.025-8.583-8.99-8.583C5.866 0 1.84 3.842 1.84 8.583v6.295c-.038.81-.24 2.672-1.227 4.849-1.327 2.925-.23 2.577.755 2.336.983-.24 3.18-1.18 3.866-.022.686 1.157 1.258 2.162 2.86 1.507 1.6-.655 2.355-.873 2.584-.873h.31c.23 0 .984.218 2.585.873 1.602.655 2.174-.35 2.86-1.507.686-1.157 2.882-.218 3.866.022s2.081.59.755-2.336M8.056 4.68c.969 0 1.754 1.186 1.754 2.649s-.785 2.65-1.754 2.65c-.968 0-1.753-1.187-1.753-2.65 0-1.463.785-2.649 1.753-2.649m2.776 10.588c-2.134 0-3.93-2.004-4.472-4.235 1.045 1.372 2.66 2.254 4.472 2.254 1.812 0 3.426-.882 4.471-2.254-.541 2.23-2.338 4.235-4.471 4.235m2.775-5.29c-.97 0-1.754-1.186-1.754-2.65 0-1.462.785-2.648 1.754-2.648s1.753 1.186 1.753 2.649-.784 2.65-1.753 2.65"/>
    <path d="M26.278 19.193l-3.242 2.593a.66.66 0 0 0-.222.652l.973 3.914a.936.936 0 0 1-.905 1.154.902.902 0 0 1-.494-.15l-3.533-2.125a.63.63 0 0 0-.682 0l-3.498 2.124a.958.958 0 0 1-.512.15c-.563 0-1.075-.518-.905-1.153l.973-3.914a.612.612 0 0 0-.222-.636l-3.157-2.609c-.648-.552-.273-1.606.563-1.656l4.13-.284a.67.67 0 0 0 .563-.402l1.57-3.763a.966.966 0 0 1 1.775 0l1.57 3.763c.085.218.307.368.563.402l4.13.284c.852.05 1.228 1.104.562 1.656z" fill-rule="nonzero" stroke="#5B005C" stroke-width=".887"/>
  </g>
</svg>
